X:1201
T:The Beggar Boy.
C:John Malchair's Third Collection of Tunes
F:https://www.vwml.org/record/Malchair/3619/p120
F:www.vwml.org/topics/historic-dance-and-tune-books/Malchair
Z:Eric Conrad Feb 2020
N:NB1 Assuning repeat of A strain.
N:NB2 Changing meter from 6/4 as in MS to 6/8.
W:Printed 1652 & 1665 -- Dancing
M:6/8
L:1/8
K:Aphr  % one flat ending on A
P:A
|: "_NB1,2"AAA f2f | ec2 d2c | AF2 G2G | A2B cA2 :|
P:B
AAA f2f | ec2 d2c | Ac2 e>de | fA2 G3 |
Ac2 e>dc | dfg/f/ efd | cAF G2G | A2B cA2 |]


% pages 121-124 are all missing.


